X: 26750
T: Milky Way, The
R: reel
M: 4/4
K: Dmajor
|:D2 ED FABA|d2 fd ecdA|D2 DF AABd|BAFA BFAF|
D2 ED FABA|d2 fd efde|efdB BAFB|1 AFEG FDB,D:|2 AFEG FD D2||
|:efdB BAFA|d2e fef d2|efdB BAFB|AFEG FD D2|
efdB BAFA|ABcf f2ed|fedB BAFB|1 AFEG FD D2:|2 AFEG FDDE||

